src/main/resources/icons/AllIcons/toolbarDecorator/addYouTrack_dark.svg

<!-- Copyright 2000-2021 JetBrains s.r.o. Use of this source code is governed by the Apache 2.0 license that can be found in the LICENSE file. -->
<svg xmlns="http://www.w3.org/2000/svg" width="16" height="16" viewBox="0 0 16 16">
  <g fill="none" fill-rule="evenodd">
    <rect width="2" height="10" x="5" y="3" fill="#AFB1B3"/>
    <rect width="2" height="10" x="5" y="3" fill="#AFB1B3" transform="rotate(90 6 8)"/>
    <path fill="#AFB1B3" d="M9,16 L9,14.068 L7.0999999,11 L8.22199981,11 L9.48999977,13.263 L10.9729998,11 L12.0600004,11 L10,14.047 L10,16 L9,16 Z M13.5,16 L13.5,12 L12,12 L12,11 L16,11 L16,12 L14.5,12 L14.5,16 L13.5,16 Z"/>
  </g>
</svg>

<svg xmlns="http://www.w3.org/2000/svg" width="16" height="16" viewBox="0 0 16 16"><rect id="frame" width="16" height="16" fill="none"/><g fill="#AFB1B3" fill-rule="evenodd"><path d="M5 3h2v10H5z"/><path d="M11 7v2H1V7z"/><path d="M9 16v-1.932L7.1 11h1.122l1.268 2.263L10.973 11h1.087L10 14.047V16H9zm4.5 0v-4H12v-1h4v1h-1.5v4h-1z"/></g></svg>
